frontend/svgs/biz010.svg

<?xml version="1.0" encoding="UTF-8"?> <svg width="100px" height="100px" viewBox="0 0 100 100" version="1.1" xmlns="http://www.w3.org/2000/svg" xmlns:xlink="http://www.w3.org/1999/xlink"> <g id="9.-Weigher" stroke="none" stroke-width="1" fill="none" fill-rule="evenodd" stroke-linecap="round" stroke-linejoin="round"> <path d="M50,2.91626707 L50,101" id="Layer-1" stroke="#FEC957" stroke-width="6"></path> <path d="M78,8 L22,8" id="Layer-2" stroke="#FEC957" stroke-width="6"></path> <path d="M64,97 L36,97" id="Layer-3" stroke="#FEC957" stroke-width="6"></path> <path d="M3,55 L21.5302866,8.67428341 C22.0159232,8.88387298 22.5513472,9 23.1138942,9 C23.6016272,9 24.0689717,8.91270687 24.5011567,8.75289181 L43,55" id="Layer-4" stroke="#FEC957" stroke-width="6"></path> <path d="M57,55 L75.5302866,8.67428341 C76.0159232,8.88387298 76.5513472,9 77.1138942,9 C77.6016272,9 78.0689717,8.91270687 78.5011567,8.75289181 L97,55" id="Layer-5" stroke="#FEC957" stroke-width="6"></path> <path d="M43,55 C43,66.045695 34.045695,75 23,75 C11.954305,75 3,66.045695 3,55 L43,55 L43,55 Z" id="Layer-6" stroke="#FF9F43" stroke-width="6" fill="#FF9F43"></path> <path d="M97,55 C97,66.045695 88.045695,75 77,75 C65.954305,75 57,66.045695 57,55 L97,55 L97,55 Z" id="Layer-7" stroke="#FF9F43" stroke-width="6" fill="#FF9F43"></path> </g> </svg>

<svg width="100" height="100" xmlns="http://www.w3.org/2000/svg"><g fill="none" fill-rule="evenodd" stroke-linecap="round" stroke-linejoin="round" stroke-width="6"><path d="M50 2.916V101M78 8H22M64 97H36M3 55L21.53 8.674c.486.21 1.021.326 1.584.326.488 0 .955-.087 1.387-.247L43 55M57 55L75.53 8.674c.486.21 1.021.326 1.584.326.488 0 .955-.087 1.387-.247L97 55" stroke="#FEC957"/><path d="M43 55c0 11.046-8.954 20-20 20S3 66.046 3 55h40zM97 55c0 11.046-8.954 20-20 20s-20-8.954-20-20h40z" stroke="#FF9F43" fill="#FF9F43"/></g></svg>
